svg/color/idia.svg

<?xml version="1.0" encoding="UTF-8" ?>
<!DOCTYPE svg PUBLIC "-//W3C//DTD SVG 1.1//EN" "http://www.w3.org/Graphics/SVG/1.1/DTD/svg11.dtd">
<svg width="250pt" height="250pt" viewBox="0 0 250 250" version="1.1" xmlns="http://www.w3.org/2000/svg">
<g id="#ffffffff">
<path fill="#ffffff" opacity="1.00" d=" M 0.00 0.00 L 119.75 0.00 C 94.70 1.18 70.00 9.82 49.99 25.00 C 19.84 47.32 0.90 83.85 0.00 121.35 L 0.00 0.00 Z" />
<path fill="#ffffff" opacity="1.00" d=" M 128.68 0.00 L 250.00 0.00 L 250.00 119.94 C 248.62 85.10 231.99 51.16 205.04 28.99 C 183.79 11.12 156.41 0.78 128.68 0.00 Z" />
<path fill="#ffffff" opacity="1.00" d=" M 221.92 203.96 C 239.23 182.85 249.23 155.93 250.00 128.65 L 250.00 250.00 L 130.18 250.00 C 165.46 248.57 199.76 231.49 221.92 203.96 Z" />
<path fill="#ffffff" opacity="1.00" d=" M 0.00 130.12 C 1.41 165.42 18.50 199.74 46.03 221.91 C 67.13 239.21 94.04 249.23 121.31 250.00 L 0.00 250.00 L 0.00 130.12 Z" />
</g>
<g id="#080a26ff">
<path fill="#080a26" opacity="1.00" d=" M 119.75 0.00 L 128.68 0.00 C 156.41 0.78 183.79 11.12 205.04 28.99 C 231.99 51.16 248.62 85.10 250.00 119.94 L 250.00 128.65 C 249.23 155.93 239.23 182.85 221.92 203.96 C 199.76 231.49 165.46 248.57 130.18 250.00 L 121.31 250.00 C 94.04 249.23 67.13 239.21 46.03 221.91 C 18.50 199.74 1.41 165.42 0.00 130.12 L 0.00 121.35 C 0.90 83.85 19.84 47.32 49.99 25.00 C 70.00 9.82 94.70 1.18 119.75 0.00 M 83.24 57.37 C 80.10 57.60 77.82 60.85 78.19 63.90 C 78.19 105.94 78.19 147.98 78.19 190.01 C 78.20 191.61 78.29 193.37 79.47 194.59 C 82.04 198.34 88.78 197.38 90.01 192.90 C 106.53 150.58 123.08 108.27 139.58 65.95 C 141.56 62.19 138.29 57.12 134.11 57.22 C 117.15 57.23 100.19 57.13 83.24 57.37 M 159.20 74.27 C 157.40 74.96 156.31 76.68 155.68 78.42 C 141.05 115.95 126.33 153.45 111.70 190.99 C 110.69 194.17 112.79 197.81 116.04 198.56 C 142.63 200.45 169.19 185.10 181.59 161.63 C 189.09 147.84 191.66 131.52 189.02 116.08 C 186.40 101.27 178.84 87.44 167.96 77.09 C 165.77 74.80 162.41 72.49 159.20 74.27 Z" />
</g>
<g id="#ff0ea9ff">
<path fill="#ff0ea9" opacity="1.00" d=" M 83.24 57.37 C 100.19 57.13 117.15 57.23 134.11 57.22 C 138.29 57.12 141.56 62.19 139.58 65.95 C 123.08 108.27 106.53 150.58 90.01 192.90 C 88.78 197.38 82.04 198.34 79.47 194.59 C 78.29 193.37 78.20 191.61 78.19 190.01 C 78.19 147.98 78.19 105.94 78.19 63.90 C 77.82 60.85 80.10 57.60 83.24 57.37 Z" />
</g>
<g id="#00daffff">
<path fill="#00daff" opacity="1.00" d=" M 159.20 74.27 C 162.41 72.49 165.77 74.80 167.96 77.09 C 178.84 87.44 186.40 101.27 189.02 116.08 C 191.66 131.52 189.09 147.84 181.59 161.63 C 169.19 185.10 142.63 200.45 116.04 198.56 C 112.79 197.81 110.69 194.17 111.70 190.99 C 126.33 153.45 141.05 115.95 155.68 78.42 C 156.31 76.68 157.40 74.96 159.20 74.27 Z" />
</g>
</svg>

<?xml version="1.0" encoding="utf-8"?>
<!-- Generator: Adobe Illustrator 26.0.3, SVG Export Plug-In . SVG Version: 6.00 Build 0)  -->
<svg version="1.1" id="Layer_1" xmlns="http://www.w3.org/2000/svg" xmlns:xlink="http://www.w3.org/1999/xlink" x="0px" y="0px"
	 viewBox="0 0 250 250" style="enable-background:new 0 0 250 250;" xml:space="preserve">
<style type="text/css">
	.st0{fill:#FFFFFF;}
	.st1{fill:#080A26;}
	.st2{fill:#FF0EA9;}
	.st3{fill:#00DAFF;}
</style>
<g id="_x23_ffffffff">
	<path class="st0" d="M130.2,250c35.3-1.4,69.6-18.5,91.7-46c17.3-21.1,27.3-48,28.1-75.3V250"/>
</g>
<g id="_x23_080a26ff">
	<path class="st1" d="M119.8,0h8.9c27.7,0.8,55.1,11.1,76.4,29c27,22.2,43.6,56.1,45,91v8.7c-0.8,27.3-10.8,54.2-28.1,75.3
		c-22.2,27.5-56.5,44.6-91.7,46h-8.9C94,249.2,67.1,239.2,46,221.9c-27.5-22.2-44.6-56.5-46-91.8v-8.8c0.9-37.5,19.8-74,50-96.3
		C70,9.8,94.7,1.2,119.8,0 M83.2,57.4c-3.1,0.2-5.4,3.5-5,6.5c0,42,0,84.1,0,126.1c0,1.6,0.1,3.4,1.3,4.6c2.6,3.8,9.3,2.8,10.5-1.7
		c16.5-42.3,33.1-84.6,49.6-126.9c2-3.8-1.3-8.8-5.5-8.7C117.2,57.2,100.2,57.1,83.2,57.4 M159.2,74.3c-1.8,0.7-2.9,2.4-3.5,4.2
		c-14.6,37.5-29.3,75-44,112.6c-1,3.2,1.1,6.8,4.3,7.6c26.6,1.9,53.2-13.5,65.5-36.9c7.5-13.8,10.1-30.1,7.4-45.6
		c-2.6-14.8-10.2-28.6-21.1-39C165.8,74.8,162.4,72.5,159.2,74.3z"/>
</g>
<g id="_x23_ff0ea9ff">
	<path class="st2" d="M83.2,57.4c17-0.2,33.9-0.1,50.9-0.1c4.2-0.1,7.4,5,5.5,8.7c-16.5,42.3-33.1,84.6-49.6,126.9
		c-1.2,4.5-8,5.4-10.5,1.7c-1.2-1.2-1.3-3-1.3-4.6c0-42,0-84.1,0-126.1C77.8,60.8,80.1,57.6,83.2,57.4z"/>
</g>
<g id="_x23_00daffff">
	<path class="st3" d="M159.2,74.3c3.2-1.8,6.6,0.5,8.8,2.8c10.9,10.4,18.4,24.2,21.1,39c2.6,15.4,0.1,31.8-7.4,45.6
		c-12.4,23.5-39,38.8-65.5,36.9c-3.2-0.8-5.3-4.4-4.3-7.6c14.6-37.5,29.4-75,44-112.6C156.3,76.7,157.4,75,159.2,74.3z"/>
</g>
</svg>
